packages/components/Atoms/Icon/assets/img/rpl_icon_search.svg

<svg width="16" height="16" viewBox="0 0 16 16" overflow="visible" xmlns="http://www.w3.org/2000/svg">
  <path id="Vector" fill-rule="evenodd" clip-rule="evenodd" d="M10.9895 9.24258C12.587 6.79233 12.2144 3.42261 9.85748 1.40991C7.58966 -0.526184 4.13776 -0.45993 1.94049 1.55707C-0.581665 3.87222 -0.645325 7.81287 1.75031 10.2102C3.79315 12.2547 6.95502 12.503 9.2771 10.967C9.30811 10.9465 9.37885 10.8841 9.47473 10.7944L13.8181 14.9887C14.192 15.3498 14.7879 15.3394 15.1489 14.9655C15.51 14.5916 15.4996 13.9958 15.1257 13.6347L10.8018 9.45914C10.8997 9.35345 10.9681 9.27545 10.9895 9.24258ZM2.96704 8.99216C1.3045 7.3284 1.3045 4.62128 2.96704 2.95752C4.62952 1.29376 7.33447 1.29334 8.99695 2.95752C10.6594 4.62128 10.6594 7.3284 8.99695 8.99216C7.33447 10.6559 4.62952 10.6559 2.96704 8.99216Z"
    fill="inherit" />
</svg>

<svg width="16" height="16" overflow="visible" xmlns="http://www.w3.org/2000/svg"><path fill-rule="evenodd" clip-rule="evenodd" d="M10.99 9.243c1.597-2.45 1.224-5.82-1.133-7.833C7.59-.526 4.137-.46 1.94 1.557a6 6 0 00-.19 8.653c2.043 2.045 5.205 2.293 7.527.757.031-.02.102-.083.198-.173l4.343 4.195a.941.941 0 101.308-1.354l-4.324-4.176c.098-.106.166-.184.188-.216zm-8.023-.25a4.274 4.274 0 010-6.035 4.266 4.266 0 016.03 0 4.274 4.274 0 010 6.034 4.266 4.266 0 01-6.03 0z" fill="inherit"/></svg>
